!!!COM: Mozart, Wolfgang Amadeus
!!!OTL: String Quartet No. 13 in D Minor
!!!OMD: Allegro moderato
!!!OMV: 4
!!!SCT1: K<sup>1</sup> 173
!!!SCA: Chronologisch-thematisches Verzeichnis sämtlicher Tonwerke Wolfgang Amade Mozarts (L. von Köchel; 1862, 2/1905, 3/1937, 1947)
!!!SCT2: K<sup>6</sup> 173
!!!YOR: Breitkopf & Härtel Edition
!!!ENC: Frances Bennion
!!!CDT: 1756/1/27/-1791/12/5/
!!!OCY: Österreich
!!!YEC: Copyright (c) 1994, 2000 Center for Computer Assisted Research in the Humanities
!!!YEM: Rights to all derivative editions reserved.
!!!YEM: Refer to licensing agreement for further details.
!!!YEN: United States of America
**kern	**kern	**kern	**kern
*k[b-]	*k[b-]	*k[b-]	*k[b-]
*d:	*d:	*d:	*d:
*clefC	*clefF	*clefG	*clefG
*M4/4	*M4/4	*M4/4	*M4/4
2d	1r	1r	1r
4c#	.	.	.
4c	.	.	.
=2	=2	=2	=2
4B	1r	1r	1r
4B-	.	.	.
4.A	.	.	.
8G#	.	.	.
=3	=3	=3	=3
4G	1r	1r	1r
4F	.	.	.
8E	.	.	.
16F	.	.	.
16G	.	.	.
8A	.	.	.
8G	.	.	.
=4	=4	=4	=4
8.F	2a	1r	1r
16E	.	.	.
4D	.	.	.
8r	4f#	.	.
8D	.	.	.
8d	4f	.	.
8B-	.	.	.
=5	=5	=5	=5
8G#	4e	1r	1r
4A	.	.	.
.	4e-	.	.
8G	.	.	.
4F#	4.d	.	.
4F	.	.	.
.	8d	.	.
=6	=6	=6	=6
4.E	4d	1r	1r
.	4c	.	.
8D#	.	.	.
4D	8B	.	.
.	16c	.	.
.	16d	.	.
4GG#	8e	.	.
.	8d	.	.
=7	=7	=7	=7
4.AA	8c	1r	1r
.	8A	.	.
.	4.a	.	.
8A	.	.	.
8B-	.	.	.
8B	4g	.	.
8c	.	.	.
8c#	16f	.	.
.	16e	.	.
=8	=8	=8	=8
8d	8f	2dd	1r
8c	8f#	.	.
8B	8g	.	.
8B-	8g#	.	.
4A	8a	4cc#	.
.	8g	.	.
4D	8f#	4cc	.
.	16e	.	.
.	16f#	.	.
=9	=9	=9	=9
4GG	8g	4b	1r
.	8d	.	.
2G	8e-	4b-	.
.	8d	.	.
.	8c#	4.a	.
.	8A	.	.
4F	[4d	.	.
.	.	8g#	.
=10	=10	=10	=10
4E	8d]	4g	1r
.	8c#	.	.
2D	8d	4f	.
.	8B-	.	.
.	8G	8e	.
.	16A	16f	.
.	16B-	16g	.
4C#	8E	8a	.
.	8e	8g	.
=11	=11	=11	=11
2D	8.A	8.f	2aa
.	16G	16e	.
.	4F	4d	.
[2d	4r	8r	4ff#
.	.	8a	.
.	4d	8b-	4ff
.	.	8a	.
=12	=12	=12	=12
4d]	8b	8g#	4ee
.	8g#	8e	.
2c	4.a	8a	4ee-
.	.	8g	.
.	.	8f#	4.dd
.	8f#	8d	.
8B-	8g	8g	.
8A	8a	8f	8dd
=13	=13	=13	=13
4G#	4b	8e	4dd
.	.	16f	.
.	.	16e	.
2A	4a	8a	4cc
.	.	16f	.
.	.	16e	.
.	4.r	8d	8b
.	.	16e	16cc
.	.	16f	16dd
4G#	.	8B	8ee
.	[8e	8b	8dd
=14	=14	=14	=14
4.A	8e]	8a	8cc
.	16c	16e	8a
.	16B	16d	.
.	4A	8c	4.ff
8A	.	8c#	.
4.B-	8r	4.d	.
.	16f	.	8dd
.	16e	.	.
.	4d	.	[4gg
8B	.	8f	.
=15	=15	=15	=15
8c	8c	8e	8gg]
8c#	8g	8b-	8ee
8d	8f	8a	8ff
8A	8c	8f	8a
8B-	8d	4f	2g
8G	4B-	.	.
4C	.	4e	.
.	16c	.	.
.	16B-	.	.
=16	=16	=16	=16
4FF	8A	4f	4f
.	8f	.	.
2.r	8d	4a	2ff
.	8c	.	.
.	8B	2g	.
.	16c	.	.
.	16d	.	.
.	8c	.	[4ee
.	8B	.	.
=17	=17	=17	=17
1r	8A	2f	4ee]
.	16B	.	.
.	16c	.	.
.	8B	.	2dd
.	8A	.	.
.	8G#	4.e	.
.	16F#	.	.
.	16G#	.	.
.	8A	.	8cc
.	8f	[8a	8cc
=18	=18	=18	=18
2r	8d	8a]	8b
.	8B	16b	8b
.	.	16a	.
.	8e	8g#	8b
.	8E	16f#	16a
.	.	16g#	16b
2A	8e	8a	8cc
.	8d	8b	8dd
.	8c	4cc	8ee
.	8A	.	8ff
=19	=19	=19	=19
4G#	8f	8dd	8.b
.	8d	8f	.
.	.	.	16b
4G	4B	4b	8ee
.	.	.	8ee
4F#	2A	8cc	8a
.	.	8cc#	4aa
4F	.	8dd	.
.	.	8dd#	8a
=20	=20	=20	=20
4.E	4B	8ee	8.g#
.	.	16e	.
.	.	16f#	16a
.	2.r	8g#	8b
8D#	.	8a	8cc
4D	.	8g#	8b
.	.	8ff	16a
.	.	.	16g#
4C	.	8ee	8a
.	.	8a	8ee
=21	=21	=21	=21
8BB	2r	8b	8dd
16C	.	8a	8cc
16D	.	.	.
8E	.	4g#	4b
8D	.	.	.
8.C	2e	8a	8.a
.	.	8e	.
16BB	.	.	16b
4AA	.	8r	4cc
.	.	8A	.
=22	=22	=22	=22
8r	4c#	4e	8r
8A	.	.	8a
8F#	4c	2d	8a
8D	.	.	8a
8GG	4B	.	8g
8G	.	.	8g
8E	4B-	[4c	8g
8C	.	.	8g
=23	=23	=23	=23
4F	4.A	2c]	8f
.	.	.	8f
4E	.	.	8f
.	8A	.	8f
4D#	4A	[2B	4f#
4E	4G	.	[4e
=24	=24	=24	=24
2BB	8F#	4.B]	4e]
.	16G	.	.
.	16A	.	.
.	8B	.	4d#
.	8A	8B	.
4EE	4G	4B	8e
.	.	.	16f#
.	.	.	16g
8c	[4e	4r	8a
8B	.	.	8g
=25	=25	=25	=25
4A	4e]	1r	8f
.	.	.	16g
.	.	.	16a
4B	4d	.	8g
.	.	.	8f
8c	4.c	.	8e
8B	.	.	16f
.	.	.	16g
8A	.	.	8f
8G	8B	.	8e
=26	=26	=26	=26
8F	8A	1r	2d
8D	8d	.	.
4G	8B	.	.
.	16A	.	.
.	16B	.	.
4.C	8c	.	4c
.	16g	.	.
.	16f	.	.
.	8e	.	4r
8C	16d	.	.
.	16c	.	.
=27	=27	=27	=27
4D	8B-	2r	1r
.	16c	.	.
.	16d	.	.
4E	8c	.	.
.	8B-	.	.
8F	8A	2f	.
16G	16B-	.	.
16A	16c	.	.
8G	8B-	.	.
8F	8A	.	.
=28	=28	=28	=28
4.C	2G	4e	2r
.	.	4e-	.
8C	.	.	.
2D	4F#	4d	2cc
.	4A	4f#	.
=29	=29	=29	=29
8r	4.G	8g	4b
8G	.	8f	.
4C	.	8e	4b-
.	16F	16d	.
.	16G	16e	.
8F	4A	4.f	4a
8E-	.	.	.
8D	8B	.	4a-
8C	8c	8e-	.
=30	=30	=30	=30
4BB	4d	8d	4.g
.	.	8f	.
4C	4.c	4.e-	.
.	.	.	8f#
8AA	.	.	4f
8BB	8G	8d	.
[4C	8G	4c	4e-
.	16A-	.	.
.	16G	.	.
=31	=31	=31	=31
4C]	4F	4A-	8d
.	.	.	16e-
.	.	.	16f
4BB	8r	4d	8g
.	8G	.	8f
8C	4G	8e-	8e-
8BB-	.	8d	16f
.	.	.	16g
8AA-	8r	8c	8a-
16BB-	8A-	16d	8g
16C	.	16e-	.
=32	=32	=32	=32
8D	4A-	8f	8f
8C	.	8e-	16g
.	.	.	16a-
8BB-	8r	8d	8b-
16C	8B-	16e-	8a-
16D	.	16f	.
8E-	4B-	8g	8g
8D	.	8f	16a-
.	.	.	16b-
8C	8r	8e-	8cc
16D	8c	16f	8b-
16E-	.	16g	.
=33	=33	=33	=33
2F	8c	8f	8a
.	8B-	8e	8g
.	8A	8f	8a
.	8G	8g	8b-
2FF	4F	4a	8cc
.	.	.	8f
.	4a	8r	[4ff
.	.	8cc	.
=34	=34	=34	=34
1r	4.g	4.b-	8ff]
.	.	.	16ee-
.	.	.	16dd
.	.	.	4.ee-
.	16f	16a	.
.	16e-	16g	.
.	4.f	4.a	.
.	.	.	16dd
.	.	.	16cc
.	.	.	[4dd
.	16e-	16g	.
.	16d	16f	.
=35	=35	=35	=35
2r	4.e-	4.g	8dd]
.	.	.	16cc
.	.	.	16b-
.	.	.	8cc
.	8d	8f	8b-
2F	4c	4e-	4a
.	4B-	4d	[4b-
=36	=36	=36	=36
4E	1r	4.c	8b-]
.	.	.	8cc
4E-	.	.	8a
.	.	8A	8f
4D	.	8f	4b-
.	.	8g	.
4D-	.	8a-	4b
.	.	16g	.
.	.	16f	.
=37	=37	=37	=37
8C	2r	4e	2.cc
8BB-	.	.	.
8AA	.	8f#	.
8GG	.	8g	.
4FF#	2d	4a	.
4GG	.	[4g	4b-
=38	=38	=38	=38
4AA	4c#	8g]	4.a
.	.	8e	.
4D	4c	8f#	.
.	.	16e	8a
.	.	16f#	.
4G	4B	4g	8g
.	.	.	8d
8E-	4B-	4r	[4g
8D	.	.	.
=39	=39	=39	=39
8C	2A	2r	4g]
8E-	.	.	.
8D	.	.	4f#
8DD	.	.	.
8GG	8G	2b-	4g
8G	8d	.	.
8D	8f	.	4r
8E-	8g	.	.
=40	=40	=40	=40
8F	4c	4a	1r
8E-	.	.	.
8D	8f	4a-	.
16C	16e-	.	.
16BB-	16d	.	.
4.E-	8e-	4g	.
.	4B-	.	.
.	.	4g-	.
8AA	8c	.	.
=41	=41	=41	=41
2BB-	8d	8f	2bb-
.	8e-	8g	.
.	8f	8a-	.
.	16e-	16g	.
.	16d	16f	.
8r	4e-	4e-	4gg
8E-	.	.	.
8E-	[4b-	4ee-	4gg-
8E-	.	.	.
=42	=42	=42	=42
8B-	2b-]	4dd	4ff
8A-	.	.	.
4G	.	4dd-	4ff-
4A-	4e-	4cc	4.ee-
4G	4g	4b-	.
.	.	.	8ee-
=43	=43	=43	=43
4F#	2d	4a	8dd
.	.	.	8cc
4G	.	8g	2b-
.	.	8f	.
[2C	2r	8e-	.
.	.	8d	.
.	.	8c	8a-
.	.	8B-	8g
=44	=44	=44	=44
4C]	1r	4A	4f#
4C#	.	4B-	2g
2D	.	4.A	.
.	.	.	4f#
.	.	8A	.
=45	=45	=45	=45
4GG	2g	4G	8g
.	.	.	8a
2.r	.	2r	8b-
.	.	.	8cc
.	4f#	.	8dd
.	.	.	16cc
.	.	.	16b-
.	4f	4dd	8a
.	.	.	8b
=46	=46	=46	=46
1r	4e	4g	8cc
.	.	.	16b-
.	.	.	16a
.	4e-	4cc#	8g
.	.	.	8a
.	4.d	8dd	8f#
.	.	8f#	8d
.	.	8g	8e
.	8c#	8e	8a
=47	=47	=47	=47
1r	4c	8a	8f#
.	.	8f#	8d
.	4B-	8d	8g
.	.	8g	8b-
.	8A	8a	8cc
.	16B-	8g	8b-
.	16c	.	.
.	8d	4f#	4a
.	8c	.	.
=48	=48	=48	=48
2G	8.B-	4g	8.g
.	16c	.	16a
.	8d	4r	8b-
.	16c	.	16a
.	16B-	.	16g
4F#	8c	8.d	8a
.	8A	.	8d
.	.	16e	.
4F	4a	8f	[4dd
.	.	16e	.
.	.	16d	.
=49	=49	=49	=49
4E	4g	8g	8dd]
.	.	8G	8b
4E-	4e-	8g	4.cc
.	.	16a	.
.	.	16g	.
4.D	4A	4f#	.
.	.	.	16dd
.	.	.	16cc
.	4d	8g	8b-
8D	.	8f	8a
=50	=50	=50	=50
4D	4B	4.e	4g#
4C	4c	.	2a
.	.	8e	.
8BB	4f	8d	.
16C	.	8c	.
16D	.	.	.
8E	4e	4B	4g#
8D	.	.	.
=51	=51	=51	=51
4C	8r	4A	4a
.	8e	.	.
2AA	8c	2.r	2.r
.	16B	.	.
.	16A	.	.
.	8B	.	.
.	16c	.	.
.	16d	.	.
[4GG	4e	.	.
=52	=52	=52	=52
4GG]	4.A	2d	1r
4FF	.	.	.
.	8A	.	.
8EE	8G	4c#	.
16FF	16A	.	.
16GG	16B-	.	.
8AA	8F#	4c	.
8FF#	8A	.	.
=53	=53	=53	=53
4.GG	4D	4B	2r
.	2.r	4B-	.
8GG	.	.	.
2FF	.	2A	2dd
=54	=54	=54	=54
1r	2a	2r	4cc#
.	.	.	4cc
.	4g#	2ee	4b
.	4g	.	4b-
=55	=55	=55	=55
2r	4f#	4dd#	2a
.	4f	4dd	.
2A	[2e	4cc#	2r
.	.	4cc	.
=56	=56	=56	=56
4G#	4e]	4b	2r
4G	4c#	4b-	.
4F#	4d	4a	2aa
4F	4a	[4dd	.
=57	=57	=57	=57
4E	4b	4dd]	4gg#
4A	2a	4cc#	4gg
4.D	.	2dd	4ff#
.	4a	.	4ff
8D	.	.	.
=58	=58	=58	=58
4.G	4.g	4.b-	4.ee-
8G	8g	8b-	8ee-
4.F	4.f	4.a	4.dd
8F	8d	8a	8dd
=59	=59	=59	=59
1E	1B-	1g	1cc#
=60	=60	=60	=60
4.E	4.B-	4.g	4.cc#
8E	8B-	8g	8cc#
4.D	4.d	4.f	4.b-
8D	8d	8f	8b-
=61	=61	=61	=61
1C#	1G	1e	1a
=62	=62	=62	=62
2D	1r	1r	1r
4C#	.	.	.
4C	.	.	.
=63	=63	=63	=63
4BB	2r	1r	1r
4BB-	.	.	.
4AA	2A	.	.
4F#	.	.	.
=64	=64	=64	=64
4G	4B-	1r	1r
4F	4B	.	.
4E	4c	.	.
8A	4c#	.	.
8G	.	.	.
=65	=65	=65	=65
8.F	4d	2d	1r
16E	.	.	.
4D	4.A	.	.
4r	.	4f	.
.	8D	.	.
4D	8d	4f#	.
.	8c	.	.
=66	=66	=66	=66
4G	8B	4g	2r
.	16c	.	.
.	16d	.	.
4E	8e	4g#	.
.	8d	.	.
8A	4c#	[2a	2aa
8AA	.	.	.
8BB	8d	.	.
8C#	8e	.	.
=67	=67	=67	=67
2D	4d	2a]	4ff#
.	4r	.	4ff
2r	2g	2b-	4ee
.	.	.	4ee-
=68	=68	=68	=68
1r	4f#	2a	4.dd
.	4f	.	.
.	.	.	8dd
.	4e	4g	4cc#
.	[4d	4f#	4cc
=69	=69	=69	=69
1r	4d]	4.g	4b
.	8e	.	4b-
.	8d	8f	.
.	2c#	8e	2a
.	.	8A	.
.	.	8a	.
.	.	8g	.
=70	=70	=70	=70
2D	2r	8.f	8r
.	.	.	8a
.	.	16e	.
.	.	4d	8dd
.	.	.	16cc#
.	.	.	16dd
4C#	2A	2r	4ee
4C	.	.	4e
=71	=71	=71	=71
4BB	4G#	2d	2r
4BB-	2G	.	.
4AA	.	4c#	2a
4D#	4F#	4c	.
=72	=72	=72	=72
4D	4F	4B	4g#
4C#	4E	2A	4g
4D	4D	.	4f#
4D	4A	[4d	4f
=73	=73	=73	=73
4GG	4B-	4d]	4.e
4AA	8A	4c#	.
.	8G	.	8e
4DD	4F	4d	4d
4r	4r	4r	4r
=74	=74	=74	=74
2AA	1F	2c	2e-
2BB-	.	2B-	2d
=75	=75	=75	=75
2FF#	1D	2A	2c
2GG	.	2G	2B-
=76	=76	=76	=76
2C#	1A	2e	2g
2D	.	[2d	2f#
=77	=77	=77	=77
2GG#	2B	2d]	2f
2AA	2E	2c#	2e
=78	=78	=78	=78
1r	1r	2r	2ddd
.	.	2ee	4ccc#
.	.	.	4ccc
=79	=79	=79	=79
1r	2r	4dd#	4bb
.	.	4dd	4bb-
.	2a	4cc#	4.aa
.	.	4cc	.
.	.	.	8aa
=80	=80	=80	=80
2r	4g#	4dd	4bb
.	4g	4ee	4ccc#
2d	4f#	4.a	4.ddd
.	4f	.	.
.	.	8a	8dd
=81	=81	=81	=81
4c#	4g	4b-	4ee
4c	4e-	4a	4ff#
4B	4d	4g	4.gg
4B-	4g	4dd	.
.	.	.	8gg
=82	=82	=82	=82
4.A	4e	4cc#	4gg
.	4d	4dd	4ff
8G#	.	.	.
4G	4c#	4b-	4ee
4F	4d	4a	[4dd
=83	=83	=83	=83
8E	4.e	8g	4dd]
16F	.	16a	.
16G	.	16b-	.
8A	.	8a	4cc#
8G	8e	8a	.
8F	4d	4a	4dd
8A	.	.	.
8F	4a	4dd	4ff
8D	.	.	.
=84	=84	=84	=84
8G	8b-	4dd	4ee
16F	16a	.	.
16E	16g	.	.
8A	8a	4cc#	4gg
8AA	8e	.	.
8BB-	8d	4dd	4ff
8B-	8f	.	.
8F	8a	4ff	4ddd
8D	8f	.	.
=85	=85	=85	=85
8G	8b-	4ee	4ddd
16F	16a	.	.
16E	16g	.	.
8A	4a 4e	4gg 4a	4ccc# 4a
8AA	.	.	.
4D	4a 4d	4ff 4a 4d	4ddd 4a 4d
4r	4r	4r	4r
=86	=86	=86	=86
2D	1r	1r	1r
4C#	.	.	.
4C	.	.	.
=87	=87	=87	=87
4BB	2d	1r	1r
4BB-	.	.	.
2AA	4c#	.	.
.	4c	.	.
=88	=88	=88	=88
2.GG	4B	2d	1r
.	4B-	.	.
.	2A	4c#	.
4FF#	.	4c	.
=89	=89	=89	=89
2.GG	2G	4B	2d
.	.	4B-	.
.	4E	2A	4c#
4FF#	[4D	.	4c
=90	=90	=90	=90
2GG	4D]	4G	4B
.	4G	2d	4B-
[2DD	4F#	.	4A
.	4c	[4d	4f#
=91	=91	=91	=91
1DD_	4B-	1d_	4g
.	4A	.	4a
.	4G	.	4b-
.	4F#	.	4cc
=92	=92	=92	=92
2.DD]	4G	1d_	4b-
.	4A	.	4a
.	4B-	.	4g
4C	4A	.	4f#
=93	=93	=93	=93
4BB-	4G	1d_	4g
4AA	4F#	.	4a
4GG	4G	.	4b-
4FF#	4A	.	4cc
=94	=94	=94	=94
[1GG	[1G	1d]	[1b- [1g
=95	=95	=95	=95
1GG]	1G]	1e 1c#	1b-] 1g]
=96	=96	=96	=96
[1DD	[1D	[1d [1A	[1a [1f#
=97	=97	=97	=97
1DD]	1D]	1d] 1A]	1a] 1f#]
==	==	==	==
*-	*-	*-	*-
!!!RWG1: This file contains only pitch and duration data.
!!!RWG2: Transposing instruments are not transposed.
!!!RWG3: Spines may have incompatible meters.
!!!RWG4: Durations of rests and tied notes may be interpreted.
!!!RWG: Key is interpreted using the Humdrum key tool.
!!!AFT: stage1
!!!END: 1997/04/15
!!!KEY: 4096590287
!!!EMD: Converted from MuseData to Humdrum Dec 16, 2000, by Andreas Kornstaedt using muse2kern.
!!!EMD: Manual editing by Craig Sapp, Nov 2001
